!!!COM: Beethoven
!!!OTL: Acht Variationen uber das Trio "Tandeln und Scherzen" aus der Oper: Soliman oder die drei Sultaninnen von Sussmayer
!!!Variation: Variation 5 a
**function	**harm	**kern	**kern
*	*	*clefF4	*clefG2
*	*	*k[b-]	*k[b-]
*M3/8	*M3/8	*M3/8	*M3/8
*d:	*d:	*d:	*d:
=121	=121	=121	=121
4.T	4.i	(8DDL	16r
.	.	.	16ALL 16d 16f
.	.	8FF	16A 16d 16f
.	.	.	16A 16d 16f
.	.	8DDJ)	16A 16d 16f
.	.	.	16AJJ 16d 16f
=122	=122	=122	=122
4.T	4.V	(16AALL	16ALL 16c# 16e
.	.	16GG#	16A 16c# 16e
.	.	16AA	16A 16c# 16e
.	.	16BB-J	16A 16c# 16e
.	.	8AAJ)	16A 16c# 16e
.	.	.	16AJJ 16c# 16e
=123	=123	=123	=123
4.T	4.V7d	(8GGL	16ALL 16c# 16e
.	.	.	16A 16c# 16e
.	.	8EE	16A 16c# 16e
.	.	.	16A 16c# 16e
.	.	8AAJ)	16A 16c# 16e
.	.	.	16AJJ 16c# 16e
=124	=124	=124	=124
4T	4ib	(16GGLL	16ALL 16d 16f
.	.	16FF	16A 16d 16f
.	.	16EE	16A 16d 16f
.	.	16FFJ)	16A 16d 16f
8T	8i	8DDJ	16A 16d 16f
.	.	.	16AJJ 16d 16f
=125	=125	=125	=125
4T	4i	(8DDL	16ALL 16d 16f
.	.	.	16A 16d 16f
.	.	8FF	16A 16d 16f
.	.	.	16A 16d 16f
8T	8IV7	8GGJ)	16B 16d 16f
.	.	.	16BJJ 16d 16f
=126	=126	=126	=126
4T	4V7b/v	(16AALL	16BLL 16d 16e
.	.	16GG#	16B 16d 16e
.	.	16AA	16B 16c 16e
.	.	16BBJ)	16B 16c 16e
8T	8ib/v	8CJ	16A 16c 16e
.	.	.	16AJJ 16c 16e
=127	=127	=127	=127
8P	8V7c/v	(16CLL	16G#LL 16d 16e
.	.	16BBJ	16G# 16d 16e
8P	8i/v	8AA	16A 16c 16e
.	.	.	16A 16c 16e
8P	8V7b/v	8GG#J)	16B 16d 16e
.	.	.	16BJJ 16d 16e
=128	=128	=128	=128
4D	4i/v	4.AA	16ALL 16c 16e
.	.	.	16A 16c 16e
.	.	.	16A 16c 16e
.	.	.	16A 16c 16e
8D	8V	.	16A 16c# 16e
.	.	.	16AJJ 16c# 16e
*-	*-	*-	*-
